X: 23122
T: Laurel's
R: reel
M: 4/4
K: Amajor
C2 CD EFAB|cfec B2 FA|BF F2 dcBA|GBAF EFED|
C/C/C CD EFAB|c2 ec BAFA|BF F/F/F d2 c/B/A|EAGB A2:|
e2 ef edcd|eaag a2 ce|fB B/B/B dcBA|
[1 GBAF EBcd|eA (3Bcd edcd|ea a/a/a a2 ce|fB B/B/B dcBA|EAGB AB:|
[2 GBAF EFED|(3CDE CD EFAB|cfec (3BcB FA|BFAF dcBA|EAGB AF||

